**kern	**kern	**kern	**kern	**kern	**kern
*part6	*part5	*part4	*part3	*part2	*part1
*staff6	*staff5	*staff4	*staff3	*staff2	*staff1
*I"架子鼓	*I"钢琴	*I"钢琴	*I"钢琴	*I"钢琴	*I"钢琴
*I'D. Set	*I'Pno.	*I'Pno.	*I'Pno.	*I'Pno.	*I'Pno.
*clefX	*clefF4	*clefF4	*clefG2	*clefG2	*clefG2
*k[]	*k[f#c#g#]	*k[f#c#g#]	*k[f#c#g#]	*k[f#c#g#]	*k[f#c#g#]
*M4/4	*M4/4	*M4/4	*M4/4	*M4/4	*M4/4
*MM80	*MM80	*MM80	*MM80	*MM80	*MM80
=1	=1	=1	=1	=1	=1
1r	1r	8AL	8dL	8eL	2r
.	.	8AJ	8dJ	8eJ	.
.	.	8.AL	8.dL	8.eL	.
.	.	[16AJk	[16c#Jk	[16eJk	.
.	.	8AL]	8c#L]	8eL]	4r
.	.	8AJ	8c#J	8eJ	.
.	.	4A	4c#	4e	8r
.	.	.	.	.	8r
=2	=2	=2	=2	=2	=2
1r	1r	8AL	8dL	8eL	1r
.	.	8AJ	8dJ	8eJ	.
.	.	8.AL	8.dL	8.eL	.
.	.	[16AJk	[16c#Jk	[16eJk	.
.	.	8AL]	8c#L]	8eL]	.
.	.	8AJ	8c#J	8eJ	.
.	.	4A	4c#	4e	.
=3	=3	=3	=3	=3	=3
1r	[2.AA	8AL	8dL	8eL	1r
.	.	8AJ	8dJ	8eJ	.
.	.	8.AL	8.dL	8.eL	.
.	.	[16AJk	[16c#Jk	[16eJk	.
.	.	8AL]	8c#L]	8eL]	.
.	.	8AJ	8c#J	8eJ	.
.	24AA]	4A	4c#	4e	.
.	24r	.	.	.	.
.	6EE	.	.	.	.
=4	=4	=4	=4	=4	=4
*^	*	*	*	*	*
2r	2r	2.AA	8AL	8dL	8eL	1r
.	.	.	8AJ	8dJ	8eJ	.
.	.	.	8.AL	8.dL	8.eL	.
.	.	.	[16AJk	[16c#Jk	[16eJk	.
8r	12r	.	8AL]	8c#L]	8eL]	.
.	24Rf\	.	.	.	.	.
8Rdd/	8r	.	8AJ	8c#J	8eJ	.
12Rff/L	4r	8r	4A	4c#	4e	.
24Ree/K	.	.	.	.	.	.
8Rdd/J	.	16EE	.	.	.	.
.	.	64r	.	.	.	.
.	.	32.AA	.	.	.	.
*	*	*	*clefG2	*	*	*
=5	=5	=5	=5	=5	=5	=5
4Raa/	4r	4AA	[2.c#	[2.e	[2.a	1r
4Rcc/	8r	[4AA	.	.	.	.
.	12r	.	.	.	.	.
.	24Rf\	.	.	.	.	.
4r	8Rf\L	8AAL]	.	.	.	.
.	8Rf\J	16BBL	.	.	.	.
.	.	[16AAJ	.	.	.	.
4Rcc/	8r	8AA]	8c#]	8e]	8a]	.
.	12Rf\L	16EJk	16r	16r	16r	.
.	.	64r	64r	64r	64r	.
.	.	32.C#	32.c#	32.e	32.a	.
.	24Rf\Jk	.	.	.	.	.
=6	=6	=6	=6	=6	=6	=6
4r	8Rf\L	8AAL	16c#	16e	16a	1r
.	.	.	64r	64r	64r	.
.	.	.	32.BKLL	32.dKLL	32.g#KLL	.
*	*	*	*clefF4	*	*	*
.	8Rf\J	8EE	16BJJ	16dJJ	16g#JJ	.
.	.	.	64r	64r	64r	.
.	.	.	32.A	32.c#	32.f#	.
4Rcc/	8r	8BB	16A	16c#	16f#	.
.	.	.	64r	64r	64r	.
*	*	*	*	*clefF4	*	*
.	.	.	32.G#KKL	32.BKKL	32.eKKL	.
.	12r	[8EJ	[8G#J	[8BJ	[8eJ	.
.	24Rf\	.	.	.	.	.
4r	8Rf\L	8EL]	4.G#]	4.B]	4.e]	.
.	8Rf\J	16C#L	.	.	.	.
.	.	[16AAJ	.	.	.	.
4Rcc/	8r	8AA]	.	.	.	.
.	8Rf\	16C#Jk	16B	16B	16e	.
.	.	64r	64r	64r	64r	.
.	.	32.E	32.B	32.B	32.e	.
*	*	*	*clefG2	*clefG2	*	*
=7	=7	=7	=7	=7	=7	=7
4r	8Rf\L	4FF#	4.c#	4.f#	4.a	1r
.	8Rf\J	.	.	.	.	.
4Rcc/	8r	4FF#	.	.	.	.
.	12r	.	8c#	8f#	8a	.
.	24Rf\	.	.	.	.	.
8r	4Rf\	8F#L	8c#L	8f#L	8aL	.
8Rcc/	.	8EJ	8BJ	8eJ	8g#J	.
8r	4r	8r	8r	8r	8r	.
8Rbb/	.	[8D	[8A	[8f#	[8a	.
=8	=8	=8	=8	=8	=8	=8
8r	4r	2D]	2A]	2f#]	2a]	2r
8Rcc/	.	.	.	.	.	.
4r	12Rf\L	.	.	.	.	.
.	12Rf\J	.	.	.	.	.
.	24r	.	.	.	.	.
.	24Rf\	.	.	.	.	.
8Rcc/	12r	4GGn	4cn	4e#X	4a	4r
.	6Rf\	.	.	.	.	.
12r	.	.	.	.	.	.
24Rcc/	.	.	.	.	.	.
12Rcc/L	4r	4GG	4d	4gn	4b	8r
24Rff/K	.	.	.	.	.	.
12Ree/	.	.	.	.	.	16e
.	.	.	.	.	.	64r
.	.	.	.	.	.	32.e#X
24Rdd/Jk	.	.	.	.	.	.
*v	*v	*	*	*	*	*
=9||	=9||	=9||	=9||	=9||	=9||
*	*k[]	*k[]	*k[]	*k[]	*k[]
*^	*	*	*	*	*
4Raa/	4r	4C	1r	1r	1r	16f
.	.	.	.	.	.	64r
.	.	.	.	.	.	32.gKLL
.	.	.	.	.	.	16g
.	.	.	.	.	.	[16gJ
4Rcc/	8r	4C	.	.	.	8gJ]
.	12r	.	.	.	.	16r
.	.	.	.	.	.	64r
.	.	.	.	.	.	32.g
.	24Rf\	.	.	.	.	.
4r	8Rf\L	4EE	.	.	.	8g#XL
.	8Rf\J	.	.	.	.	16eL
.	.	.	.	.	.	[16dJJ
4Rcc/	8r	4EE	.	.	.	16d]
.	.	.	.	.	.	64r
.	.	.	.	.	.	32.eKLL
.	12r	.	.	.	.	16d
.	.	.	.	.	.	[16cJJ
.	24Rf\	.	.	.	.	.
=10	=10	=10	=10	=10	=10	=10
4r	4Rf\	4AA	1r	1r	1r	8cL]
.	.	.	.	.	.	8A
4Rcc/	8r	4AA	.	.	.	8A
.	12r	.	.	.	.	16eJk
.	.	.	.	.	.	64r
.	.	.	.	.	.	32.d
.	24Rf\	.	.	.	.	.
4r	8Rf\L	4GG	.	.	.	4e
.	8Rf\J	.	.	.	.	.
8Rgg/L	4r	4GG	.	.	.	12d
.	.	.	.	.	.	6c
12Ree/	.	.	.	.	.	.
24Rdd/Jk	.	.	.	.	.	.
=11	=11	=11	=11	=11	=11	=11
4Rbb/	4r	4FF	1r	1r	1r	4r
4Rcc/	8r	4FF	.	.	.	16r
.	.	.	.	.	.	64r
.	.	.	.	.	.	32.AKLL
.	12r	.	.	.	.	16cJJ
.	.	.	.	.	.	64r
.	.	.	.	.	.	32.d
.	24Rf\	.	.	.	.	.
4r	8Rf\L	4EE	.	.	.	8.eL
.	8Rf\J	.	.	.	.	.
.	.	.	.	.	.	[16gJk
4Rcc/	8r	4EE	.	.	.	8gL]
.	8Rf\	.	.	.	.	8aJ
=12	=12	=12	=12	=12	=12	=12
4r	8Rf\	4D	2r	2r	2r	8.c'
.	12r	.	.	.	.	.
.	.	.	.	.	.	64r
*	*	*	*	*	*	*clefF4
.	.	.	.	.	.	32.A
.	24Rf\	.	.	.	.	.
4Rcc/	8r	4D	.	.	.	16A
.	.	.	.	.	.	64r
.	.	.	.	.	.	32.AKLL
.	12r	.	.	.	.	16eJJ
.	.	.	.	.	.	64r
.	.	.	.	.	.	32.d
.	24Rf\	.	.	.	.	.
*	*	*	*	*	*	*clefG2
4r	8Rf\L	4GG	4r	4r	4r	4d
.	8Rf\J	.	.	.	.	.
8Rcc/L	4r	16G	12r	12r	12r	8r
.	.	64r	.	.	.	.
.	.	32.DKKL	.	.	.	.
*	*	*	*clefF4	*	*	*
.	.	.	6B	6d	6g	.
12Rdd/	.	8GGJ	.	.	.	16e
.	.	.	.	.	.	64r
.	.	.	.	.	.	32.f
24Rgg/Jk	.	.	.	.	.	.
=13	=13	=13	=13	=13	=13	=13
4Ree/	4r	4C	2G	2c	2e	8gL
.	.	.	.	.	.	16gJk
.	.	.	.	.	.	64r
.	.	.	.	.	.	32.gKKL
4Rgg/	8r	4C	.	.	.	8.g'J
.	12r	.	.	.	.	.
.	.	.	.	.	.	64r
.	.	.	.	.	.	32.g
.	24Rf\	.	.	.	.	.
4r	8Rf\L	4EE	2G#X	2d	2e	8g#XL
.	8Rf\J	.	.	.	.	16eL
.	.	.	.	.	.	[16dJJ
8Rcc/L	4r	4EE	.	.	.	16d]
.	.	.	.	.	.	64r
.	.	.	.	.	.	32.eKLL
8Rgg/J	.	.	.	.	.	16d
.	.	.	.	.	.	[16cJJ
=14	=14	=14	=14	=14	=14	=14
4r	4Rf\	4AA	2A	2e	2.e	8cL]
.	.	.	.	.	.	8A
4Rcc/	8r	4AA	.	.	.	8A
.	12r	.	.	.	.	16eJk
.	.	.	.	.	.	64r
.	.	.	.	.	.	32.d
.	24Rf\	.	.	.	.	.
4r	8Rf\L	4GG	4B-X	4d	.	4e
.	8Rf\J	.	.	.	.	.
4Rcc/	8r	4C	4G	4c	4f	8r
.	12Rf\L	.	.	.	.	16c
.	.	.	.	.	.	64r
.	.	.	.	.	.	32.g
.	24Rf\Jk	.	.	.	.	.
*v	*v	*	*	*	*	*
=15	=15	=15	=15	=15	=15
8Ree/	2F	1A	2c	2f	8.gL
12r	.	.	.	.	.
.	.	.	.	.	[16cJk
24Rgg/	.	.	.	.	.
4r	.	.	.	.	8c]
.	.	.	.	.	8r
12Rdd/L	2E	.	2c	2e	16g
.	.	.	.	.	64r
.	.	.	.	.	32.gKLL
12Ree/J	.	.	.	.	.
.	.	.	.	.	16a
24r	.	.	.	.	.
.	.	.	.	.	[16cJ
24Rgg/	.	.	.	.	.
8r	.	.	.	.	8c]
12Ree/L	.	.	.	.	8GJ
24Ree/Jk	.	.	.	.	.
=16	=16	=16	=16	=16	=16
*M2/4	*M2/4	*M2/4	*M2/4	*M2/4	*M2/4
*	*	*^	*	*	*^
4Rbb/	4D	16F#X	4r	4d	4f#X	16A	4r
.	.	64r	.	.	.	64r	.
.	.	32.F#KLL	.	.	.	32.AKLL	.
.	.	16AJJ	.	.	.	16cJJ	.
.	.	64r	.	.	.	64r	.
.	.	32.c	.	.	.	32.e	.
4Rgg/	4GG	12c	8r	4c	4fn	12d	8r
.	.	6A	.	.	.	6c	.
.	.	.	16r	.	.	.	16r
.	.	.	64r	.	.	.	64r
.	.	.	32.A	.	.	.	32.B
*	*	*v	*v	*	*	*v	*v
=17	=17	=17	=17	=17	=17
*M4/4	*M4/4	*M4/4	*M4/4	*M4/4	*M4/4
*^	*	*	*^	*^	*
12Rcc/L	4r	4C	2G	2c	2r	2r	2e	4c
12Ree/J	.	.	.	.	.	.	.	.
24r	.	.	.	.	.	.	.	.
24Rgg/	.	.	.	.	.	.	.	.
4Rcc/	8r	4C	.	.	.	.	.	4r
.	8Rf\	.	.	.	.	.	.	.
12Ree/L	4r	16GG	4r	6c'	16r	16r	6f#X'	4r
.	.	64r	.	.	64r	64r	.	.
.	.	32.AAKKL	.	.	32.c	32.fn	.	.
12Rdd/J	.	.	.	.	.	.	.	.
.	.	8CJ	.	.	16r	16r	.	.
24r	.	.	.	6r	.	.	6r	.
.	.	.	.	.	[16c	[16e	.	.
24Rdd/	.	.	.	.	.	.	.	.
12Rcc/L	8r	16AA	8r	.	16c]	16e]	.	8r
.	.	64r	.	.	16r	16r	.	.
.	.	32.GGKKL	.	.	.	.	.	.
24Rdd/Jk	.	.	.	6c	.	.	6c	.
8r	8Rf\	8EEJ	16E	.	8r	8r	.	16e
.	.	.	64r	.	.	.	.	64r
.	.	.	32.G	.	.	.	.	32.f
*	*	*	*	*v	*v	*	*	*
*	*	*	*	*	*v	*v	*
=18	=18	=18	=18	=18	=18	=18
4Raa/	4r	4C	8GL	2c	2e	8fL
*	*	*	*clefG2	*	*	*
.	.	.	16cL	.	.	16gL
.	.	.	[16cJ	.	.	[16gJ
4Rcc/	8r	4C	8cJ]	.	.	8gJ]
.	12r	.	16r	.	.	16r
.	.	.	64r	.	.	64r
.	.	.	32.c	.	.	32.g
.	24Rf\	.	.	.	.	.
8r	4Rf\	4EE	8dL	2d	4g#X	8g#XL
*	*	*	*clefF4	*	*	*
8Rgg/	.	.	16GL	.	.	16eL
.	.	.	[16FJJ	.	.	[16dJJ
4Rcc/	8r	4EE	16F]	.	4f	16d]
.	.	.	64r	.	.	64r
.	.	.	32.GKLL	.	.	32.eKLL
.	12r	.	16F	.	.	16d
.	.	.	[16EJJ	.	.	[16cJJ
.	24Rf\	.	.	.	.	.
=19	=19	=19	=19	=19	=19	=19
*	*	*	*	*	*	*^
4r	4Rf\	4AA	4E]	2e	2.a	8cL]	2r
.	.	.	.	.	.	8A	.
4Rcc/	8r	4AA	4r	.	.	8A	.
.	12r	.	.	.	.	16eJk	.
.	.	.	.	.	.	64r	.
.	.	.	.	.	.	32.d	.
.	24Rf\	.	.	.	.	.	.
4r	8Rf\L	4GG	2r	2c	.	8.e	4r
.	8Rf\J	.	.	.	.	.	.
.	.	.	.	.	.	64r	.
.	.	.	.	.	.	32.eKKL	.
4Rgg/	8r	4GG	.	.	8gL	12dJ	8r
.	.	.	.	.	.	6c	.
.	8Rf\	.	.	.	8fJ	.	16r
.	.	.	.	.	.	.	64r
.	.	.	.	.	.	.	32.A
*	*	*	*	*	*	*v	*v
=20	=20	=20	=20	=20	=20	=20
4r	4Rf\	4FF	1A	1c	2f	4r
4Rcc/	8r	4FF	.	.	.	16r
.	.	.	.	.	.	64r
.	.	.	.	.	.	32.AKLL
.	12r	.	.	.	.	16cJJ
.	.	.	.	.	.	64r
.	.	.	.	.	.	32.d
.	24Rf\	.	.	.	.	.
4r	8Rf\L	4EE	.	.	2e	8eL
.	8Rf\J	.	.	.	.	16GL
.	.	.	.	.	.	[16gJJ
4Rcc/	8r	4EE	.	.	.	8gL]
.	8Rf\	.	.	.	.	8aJ
=21	=21	=21	=21	=21	=21	=21
4r	8Rf\	4D	2A	1d	2f	8.c
.	12r	.	.	.	.	.
.	.	.	.	.	.	64r
.	.	.	.	.	.	32.AKKL
.	24Rf\	.	.	.	.	.
4Rcc/	8r	4D	.	.	.	8A
.	12r	.	.	.	.	16eJk
.	.	.	.	.	.	64r
.	.	.	.	.	.	32.d
.	24Rf\	.	.	.	.	.
4r	8Rf\L	4GG	2B	.	2g	4d
.	8Rf\J	.	.	.	.	.
12Ree/L	4r	16G	.	.	.	8r
.	.	64r	.	.	.	.
.	.	32.DKKL	.	.	.	.
24Rdd/K	.	.	.	.	.	.
8Rgg/J	.	8GGJ	.	.	.	16e
.	.	.	.	.	.	64r
.	.	.	.	.	.	32.f
=22	=22	=22	=22	=22	=22	=22
4r	4Rf\	4C	2G	2c	2e	8gL
.	.	.	.	.	.	16gL
.	.	.	.	.	.	[16gJ
4Rcc/	8r	4C	.	.	.	8gJ]
.	12r	.	.	.	.	16r
.	.	.	.	.	.	64r
.	.	.	.	.	.	32.g
.	24Rf\	.	.	.	.	.
4r	8Rf\L	4EE	4G#X	2d	2e	8g#XL
.	8Rf\J	.	.	.	.	16eL
.	.	.	.	.	.	[16dJJ
4Rcc/	8r	4GG#X	4B	.	.	16d]
.	.	.	.	.	.	64r
.	.	.	.	.	.	32.eKLL
.	8Rf\	.	.	.	.	16d
.	.	.	.	.	.	[16cJJ
=23	=23	=23	=23	=23	=23	=23
4r	8Rf\	4AA	2A	2c	2e	8cL]
.	12r	.	.	.	.	8A
.	24Rf\	.	.	.	.	.
4Rcc/	4r	4AA	.	.	.	8A
.	.	.	.	.	.	16eJk
.	.	.	.	.	.	64r
.	.	.	.	.	.	32.d
8Rff/L	2r	4GG	2B-X	2d	4f	4e
8Rff/	.	.	.	.	.	.
8Ree/	.	4C	.	.	4e	8r
8Rdd/J	.	.	.	.	.	16c
.	.	.	.	.	.	64r
.	.	.	.	.	.	32.g
=24	=24	=24	=24	=24	=24	=24
4r	4Rf\	4FF	2A	1c	2f	8.gL
.	.	.	.	.	.	[16cK
4Rcc/	8r	4FF	.	.	.	8cJ]
.	12r	.	.	.	.	16r
.	.	.	.	.	.	64r
.	.	.	.	.	.	32.c
.	24Rf\	.	.	.	.	.
4r	8Rf\L	4EE	2G	.	2e	16g
.	.	.	.	.	.	64r
.	.	.	.	.	.	32.gKLL
.	8Rf\J	.	.	.	.	16a
.	.	.	.	.	.	[16cJ
4Rgg/	8r	4EE	.	.	.	8c]
.	8Rf\	.	.	.	.	16AJk
.	.	.	.	.	.	64r
.	.	.	.	.	.	32.A
*v	*v	*	*	*	*	*
=25	=25	=25	=25	=25	=25
*	*	*^	*^	*^	*^
4Raa/	4D	4r	16A	16d	4r	16f#X	4r	16a	4r
.	.	.	64r	64r	.	64r	.	64r	.
.	.	.	32.AKLL	32.dKLL	.	32.f#KLL	.	32.aKLL	.
.	.	.	16AJJ	16dJJ	.	16aJJ	.	16fJJ	.
.	.	.	64r	64r	.	64r	.	64r	.
.	.	.	32.AKKL	32.dKKL	.	32.aKKL	.	32.fKKL	.
4Rcc/	4GG	8r	12BJ	12dJ	8r	12fnJ	8r	12dJ	8r
.	.	.	6c	6c	.	6e	.	6c	.
.	.	16r	.	.	16r	.	16r	.	16r
.	.	64r	.	.	64r	.	64r	.	64r
.	.	32.B	.	.	32.B	.	32.d	.	32.B
12Rff/L	4C	2r	2G	2c	2r	2e	2r	4c	2r
24Ree/K	.	.	.	.	.	.	.	.	.
8Rdd/J	.	.	.	.	.	.	.	.	.
8Rcc/L	4AA	.	.	.	.	.	.	4r	.
12Ree/	.	.	.	.	.	.	.	.	.
24Rdd/Jk	.	.	.	.	.	.	.	.	.
*	*	*v	*v	*	*	*v	*v	*v	*v
*	*	*	*v	*v	*	*
=26	=26	=26	=26	=26	=26
*^	*	*	*	*	*
4Rbb/	4r	4BB	2G	8r	8r	16d
.	.	.	.	.	.	64r
.	.	.	.	.	.	32.cKLL
.	.	.	.	4.d	16r	16dJJ
.	.	.	.	.	[16g	64r
.	.	.	.	.	.	32.cKKL
4Rcc/	8r	4BB	.	.	4g]	12d
.	.	.	.	.	.	12.g
.	12r	.	.	.	.	.
.	24Rf\	.	.	.	.	[24fJk
4r	8Rf\L	4C	2c	2e	2g	16f]
.	.	.	.	.	.	64r
.	.	.	.	.	.	32.eKLL
.	8Rf\J	.	.	.	.	16d
.	.	.	.	.	.	[16eJ
4Rcc/	4r	4C	.	.	.	8eJ]
.	.	.	.	.	.	16r
.	.	.	.	.	.	64r
.	.	.	.	.	.	32.d
=27	=27	=27	=27	=27	=27	=27
*	*	*	*	*^	*	*^
4Rcc/ 4Rbb	4r	4GG	4G	2r	8r	8r	2r	16d
.	.	.	.	.	.	.	.	64r
.	.	.	.	.	.	.	.	32.cKLL
.	.	.	.	.	4.d	16r	.	16dJJ
.	.	.	.	.	.	[16g#X	.	64r
.	.	.	.	.	.	.	.	32.cKKL
4Rgg/	8r	4GG#X	4G#X	.	.	4g#]	.	12d
.	.	.	.	.	.	.	.	12.g
.	12r	.	.	.	.	.	.	.
.	24Rf\	.	.	.	.	.	.	[24fJk
*	*	*	*clefG2	*	*	*	*	*
4r	8Rf\L	4AA	4A	4r	6.e	4a	4r	16f]
.	.	.	.	.	.	.	.	64r
.	.	.	.	.	.	.	.	32.eKLL
.	12Rf\	.	.	.	.	.	.	16dJJ
.	.	.	.	.	.	.	.	64r
.	.	.	.	.	.	.	.	32.e
.	24Rf\Jk	.	.	.	.	.	.	.
4Rcc/	8r	4GGn	4c	8r	12r	4gn	8r	12r
.	.	.	.	.	6A'	.	.	6c
.	8Rf\	.	.	16r	.	.	16r	.
.	.	.	.	64r	.	.	64r	.
.	.	.	.	32.e	.	.	32.g	.
=28	=28	=28	=28	=28	=28	=28	=28	=28
4r	4Rf\	4FF	2c	4r	4f	2f	4r	4a
4Rcc/	8r	4FF	.	8r	16r	.	8r	16r
.	.	.	.	.	64r	.	.	64r
.	.	.	.	.	32.eKKL	.	.	32.gKKL
.	12r	.	.	16r	8d'J	.	16r	8f'J
.	.	.	.	[16e	.	.	[16g	.
.	24Rf\	.	.	.	.	.	.	.
4r	8Rf\L	4EE	2c	16e]	12r	2e	16g]	12r
.	.	.	.	16r	.	.	16r	.
.	.	.	.	.	6g	.	.	6b
.	8Rf\J	.	.	16r	.	.	16r	.
.	.	.	.	64r	.	.	64r	.
.	.	.	.	32.g	.	.	32.b	.
4Rcc/	8r	4EE	.	4r	16a	.	4r	16cc
.	.	.	.	.	64r	.	.	64r
.	.	.	.	.	32.eKLL	.	.	32.gKLL
.	12Rf\L	.	.	.	16c	.	.	16e
.	.	.	.	.	[16cJJ	.	.	[16eJJ
.	24Rf\Jk	.	.	.	.	.	.	.
=29	=29	=29	=29	=29	=29	=29	=29	=29
*	*	*^	*	*	*	*	*	*
2r	8Rf\L	4D	2r	2A	1r	16c]	2f#X	1r	16e]
.	.	.	.	.	.	64r	.	.	64r
.	.	.	.	.	.	32.A	.	.	32.d
.	8Rf\	.	.	.	.	4.A	.	.	4.d
.	8Rf\	8.D	.	.	.	.	.	.	.
.	8Rf\J	.	.	.	.	.	.	.	.
.	.	64r	.	.	.	.	.	.	.
.	.	32.D	.	.	.	.	.	.	.
8Rff/L	4r	12DL	4r	4r	.	4r	4r	.	4r
.	.	12.C	.	.	.	.	.	.	.
8Ree/J	.	.	.	.	.	.	.	.	.
.	.	[24AAJk	.	.	.	.	.	.	.
4Rdd/	8r	4AA]	12r	8cL	.	8dL	8f#L	.	8aL
.	.	.	6FF#X	.	.	.	.	.	.
.	8Rf\	.	.	8cJ	.	8dJ	8f#J	.	8aJ
*	*	*v	*v	*	*v	*v	*	*v	*v
=30	=30	=30	=30	=30	=30	=30
8r	4Rf\	8AAL	4.c	2d	4a	[4a
8Rcc/	.	8AA	.	.	.	.
12r	8Rf\	8AA	.	.	4g#X	16a]
.	.	.	.	.	.	64r
.	.	.	.	.	.	32.g#XKLL
6Rcc/ 6Rgg	.	.	.	.	.	.
.	12r	8AAJ	8A	.	.	16aJJ
.	.	.	.	.	.	64r
.	.	.	.	.	.	32.a
.	24Rf\	.	.	.	.	.
4Rcc/	8r	8EEL	4B	4e	4a	8.a
.	8Rf\	16AAJk	.	.	.	.
.	.	64r	.	.	.	64r
.	.	32.BB	.	.	.	32.b
12Rff/L	4r	16E	4e	4g#X	4b	4b
.	.	64r	.	.	.	.
.	.	32.BBKKL	.	.	.	.
24Ree/K	.	.	.	.	.	.
8Rdd/J	.	8EEJ	.	.	.	.
*v	*v	*	*	*	*	*
=31||	=31||	=31||	=31||	=31||	=31||
*	*k[f#c#g#]	*k[f#c#g#]	*k[f#c#g#]	*k[f#c#g#]	*k[f#c#g#]
*^	*	*	*	*	*^
4Raa/	4r	8AAL	2c#	2e	2a	8bL	8r
.	.	8AA	.	.	.	8a'J	16r
.	.	.	.	.	.	.	[16e
4Rcc/	8r	8AA	.	.	.	12r	16e]
.	.	.	.	.	.	.	16r
.	.	.	.	.	.	6a	.
.	12r	8AAJ	.	.	.	.	16r
.	.	.	.	.	.	.	64r
.	.	.	.	.	.	.	32.a
.	24Rf\	.	.	.	.	.	.
*	*	*	*clefF4	*	*	*	*
4r	8Rf\L	8C#L	2B	2e#X	2g#	12bL	2r
.	.	.	.	.	.	12.cc#	.
.	8Rf\J	8C#	.	.	.	.	.
.	.	.	.	.	.	[24ddJk	.
4Rcc/	8r	8C#	.	.	.	16dd]	.
.	.	.	.	.	.	64r	.
.	.	.	.	.	.	32.cc#KLL	.
.	12r	8C#J	.	.	.	16g#JJ	.
.	.	.	.	.	.	64r	.
.	.	.	.	.	.	32.b	.
.	24Rf\	.	.	.	.	.	.
=32	=32	=32	=32	=32	=32	=32	=32
4r	4Rf\	8FF#L	2A	2f#	2a	4r	12a
.	.	.	.	.	.	.	6a
.	.	8FF#	.	.	.	.	.
4Rcc/	8r	8FF#	.	.	.	8r	8r
.	12r	8FF#J	.	.	.	16r	8a'
.	.	.	.	.	.	[16g#	.
.	24Rf\	.	.	.	.	.	.
4r	8Rf\L	8EEL	4A	2e	2a	16g#]	12r
.	.	.	.	.	.	16r	.
.	.	.	.	.	.	.	6a
.	8Rf\J	8EE	.	.	.	16r	.
.	.	.	.	.	.	64r	.
.	.	.	.	.	.	32.g#	.
4Rcc/	8r	8EE	4c#	.	.	4r	12e
.	.	.	.	.	.	.	6e
.	8Rf\	8EEJ	.	.	.	.	.
*	*	*	*	*	*	*v	*v
=33	=33	=33	=33	=33	=33	=33
4r	4Rf\	8DL	2d	2f#	2a	16d
.	.	.	.	.	.	64r
.	.	.	.	.	.	32.eKKL
.	.	8D	.	.	.	8f#
4Rcc/	8r	8D	.	.	.	8f#
.	12r	8DJ	.	.	.	16dL
.	.	.	.	.	.	[16eJJ
.	24Rf\	.	.	.	.	.
4r	8Rf\L	8C#L	2c#	2e	2a	16e]
.	.	.	.	.	.	64r
.	.	.	.	.	.	32.f#KKL
.	8Rf\J	8C#J	.	.	.	8bJ
12Rcc/L	4r	16C#	.	.	.	4a'
.	.	64r	.	.	.	.
.	.	32.AAKKL	.	.	.	.
12Ree/J	.	.	.	.	.	.
.	.	8C#J	.	.	.	.
24r	.	.	.	.	.	.
24Rdd/	.	.	.	.	.	.
=34	=34	=34	=34	=34	=34	=34
4r	8Rf\L	8BBL	2B	2d#X	4.f#	16f#
.	.	.	.	.	.	64r
.	.	.	.	.	.	32.g#KKL
.	8Rf\J	8BB	.	.	.	8aJ
4Rcc/	8r	8BB	.	.	.	16a
.	.	.	.	.	.	64r
.	.	.	.	.	.	32.f#KLL
.	12r	8BBJ	.	.	8g#	16f#
.	.	.	.	.	.	[16aJJ
.	24Rf\	.	.	.	.	.
8r	4Rf\	8EL	2B	2e	4a	16a]
.	.	.	.	.	.	64r
.	.	.	.	.	.	32.bKKL
8Rcc/	.	8EJ	.	.	.	8cc#J
12Rcc/L	4r	16F#	.	.	4g#	4b'
.	.	64r	.	.	.	.
.	.	32.EKKL	.	.	.	.
12Rff/J	.	.	.	.	.	.
.	.	8C#J	.	.	.	.
24r	.	.	.	.	.	.
24Rdd/	.	.	.	.	.	.
*	*	*	*clefG2	*	*	*
=35	=35	=35	=35	=35	=35	=35
*	*	*	*	*^	*	*^
4Raa/	4r	8AAL	2c#	8f#L	8r	2a	8bL	8r
.	.	8AA	.	8e'J	16r	.	8a'J	16r
.	.	.	.	.	[16c#	.	.	[16e
4Rcc/	8r	8AA	.	12r	16c#]	.	12r	16e]
.	.	.	.	.	16r	.	.	16r
.	.	.	.	6c#	.	.	6a	.
.	12r	8AAJ	.	.	16r	.	.	16r
.	.	.	.	.	64r	.	.	64r
.	.	.	.	.	32.c#	.	.	32.a
.	24Rf\	.	.	.	.	.	.	.
4r	8Rf\L	8C#L	2c#	12e#XL	2r	2g#	12bL	2r
.	.	.	.	12.e#	.	.	12.cc#	.
.	8Rf\J	8C#	.	.	.	.	.	.
.	.	.	.	[24f#Jk	.	.	[24ddJk	.
4Rcc/	8r	8C#	.	16f#]	.	.	16dd]	.
.	.	.	.	64r	.	.	64r	.
.	.	.	.	32.e#KLL	.	.	32.cc#KLL	.
.	8Rf\	8C#J	.	16c#JJ	.	.	16g#JJ	.
.	.	.	.	64r	.	.	64r	.
.	.	.	.	32.e#	.	.	32.b	.
*	*	*	*	*v	*v	*	*	*
=36	=36	=36	=36	=36	=36	=36	=36
4Rcc/	4r	8F#L	4f#	8f#L	4f#	4r	8aL
.	.	8F#	.	8f#J	.	.	8aJ
4Rcc/	8r	8F#	4e	4r	4g#	8r	8r
.	8Rf\	8F#J	.	.	.	16r	8a'
.	.	.	.	.	.	[16g#	.
12Rff/L	2r	8EL	2c#	2e	2a	16g#]	12r
.	.	.	.	.	.	16r	.
12Ree/J	.	.	.	.	.	.	6a
.	.	8EJ	.	.	.	16r	.
24r	.	.	.	.	.	.	.
.	.	.	.	.	.	64r	.
.	.	.	.	.	.	32.g#	.
24Rdd/	.	.	.	.	.	.	.
12Ree/L	.	16E	.	.	.	4r	12e
.	.	64r	.	.	.	.	.
.	.	32.AAKKL	.	.	.	.	.
24Rdd/K	.	.	.	.	.	.	6e
8Rdd/J	.	8EJ	.	.	.	.	.
*	*	*	*	*	*	*v	*v
=37	=37	=37	=37	=37	=37	=37
4Raa/	4Rf\	8DL	2d	2f#	2a	16d
.	.	.	.	.	.	64r
.	.	.	.	.	.	32.eKKL
.	.	8D	.	.	.	8f#
4Rcc/	8r	8D	.	.	.	8f#
.	12Rf\L	8DJ	.	.	.	16dL
.	.	.	.	.	.	[16eJJ
.	24Rf\Jk	.	.	.	.	.
8r	4Rf\	8C#L	4c#	2e	4g#	16e]
.	.	.	.	.	.	64r
.	.	.	.	.	.	32.f#KKL
8Rdd/L	.	8C#	.	.	.	8bJ
*	*	*	*clefF4	*	*	*
8Rcc/	4r	8C#	4B	.	4e	4a'
8Rdd/J	.	8AAJ	.	.	.	.
*v	*v	*	*	*	*	*
=38	=38	=38	=38	=38	=38
4Rcc/	8BBL	2A	4d	2f#	16f#
.	.	.	.	.	64r
.	.	.	.	.	32.g#KKL
.	8BB	.	.	.	8a
8Rcc/	8BB	.	4c#	.	8a
12r	8BBJ	.	.	.	16f#L
.	.	.	.	.	[16aJJ
24Rdd/	.	.	.	.	.
8Rcc/L	8EL	2G#	2B	2e	16a]
.	.	.	.	.	64r
.	.	.	.	.	32.bKKL
8Ree/J	8E	.	.	.	8cc#
8Rcc/L	8E	.	.	.	8dd
12Ree/	8EJ	.	.	.	16cc#L
.	.	.	.	.	[16aJJ
24Rdd/Jk	.	.	.	.	.
=39	=39	=39	=39	=39	=39
*^	*	*	*	*	*
4Raa/	4r	8DL	2A	2d	2a	12a]
.	.	.	.	.	.	[6a
.	.	8D	.	.	.	.
4Rcc/	8r	8D	.	.	.	8a]
.	12r	8DJ	.	.	.	8r
.	24Rf\	.	.	.	.	.
4r	8Rf\L	8EL	2B	2e	2g#	4b
.	8Rf\J	8EJ	.	.	.	.
4Rcc/	8r	16E	.	.	.	12aL
.	.	64r	.	.	.	.
.	.	32.BBKKL	.	.	.	.
.	.	.	.	.	.	12b
.	8Rf\	8EJ	.	.	.	.
.	.	.	.	.	.	12cc#J
=40	=40	=40	=40	=40	=40	=40
4Raa/	2r	8F#L	4c#	4f#	4a	8cc#L
.	.	8F#	.	.	.	16ddL
.	.	.	.	.	.	[16cc#JJ
4Raa/	.	8E	4B	4e	4g#	16cc#]
.	.	.	.	.	.	64r
.	.	.	.	.	.	32.bKKL
.	.	8EJ	.	.	.	8aJ
4Raa/	8r	4D#X	2A	2d#X	2f#	4f#
.	8Rf\	.	.	.	.	.
8Rff/L	4r	4BB	.	.	.	8r
12Ree/	.	.	.	.	.	16bLL
.	.	.	.	.	.	[16aJJ
24Rdd/Jk	.	.	.	.	.	.
=41	=41	=41	=41	=41	=41	=41
4Rcc/	4r	2D	4.A	4.d	4.f#	4a]
4Rcc/	8r	.	.	.	.	8r
.	12r	.	16r	16r	16r	16r
.	.	.	64r	64r	64r	64r
.	.	.	32.B	32.B	32.e	32.e
.	24Rf\	.	.	.	.	.
4Raa/	4r	2E	8.G#	8.e	8.g#	8.b
.	.	.	64r	64r	64r	64r
.	.	.	32.AKKL	32.c#KKL	32.f#KKL	32.aKKL
4Rcc/	8r	.	8.A	8.c#	8.f#	8.a
.	12Rf\L	.	.	.	.	.
*	*	*	*clefG2	*	*	*
.	.	.	[16c#Jk	[16eJk	[16aJk	[16aJk
.	24Rf\Jk	.	.	.	.	.
=42	=42	=42	=42	=42	=42	=42
4Raa/	4r	4.AA	8c#]	4e]	4.a]	2.a]
.	.	.	[4.c#	.	.	.
4Rcc/	8r	.	.	[4e	.	.
.	12r	8AA	.	.	[8a	.
.	24Rf\	.	.	.	.	.
4r	8Rf\L	4AA	8.c#]	8eL]	4a]	.
.	8Rf\J	.	.	8dJ	.	.
.	.	.	16r	.	.	.
8Rcc/L	4r	4GGn	4A	4cn	4e#X	8r
12Ree/	.	.	.	.	.	16d
.	.	.	.	.	.	64r
.	.	.	.	.	.	32.e#X
24Rdd/Jk	.	.	.	.	.	.
*	*	*	*clefF4	*	*	*
*v	*v	*	*	*	*	*
=43	=43	=43	=43	=43	=43
*	*k[]	*k[]	*k[]	*k[]	*k[]
*^	*	*	*	*	*
4Raa/	4r	4C	4G	4c	4e	8gL
.	.	.	.	.	.	16gL
.	.	.	.	.	.	[16gJ
4Rcc/	8r	8.C	4G	4c	4e	8gJ]
.	12r	.	.	.	.	16r
.	.	64r	.	.	.	64r
.	.	32.C	.	.	.	32.g
.	24Rf\	.	.	.	.	.
4r	8Rf\L	8EE	4G#X	4d	4e	8g#XL
.	8Rf\J	4EE	.	.	.	16eL
.	.	.	.	.	.	[16dJJ
4Rcc/	8r	.	4B	4d	4e	16d]
.	.	.	.	.	.	64r
.	.	.	.	.	.	32.eKLL
.	12r	8EE	.	.	.	16d
.	.	.	.	.	.	[16cJJ
.	24Rf\	.	.	.	.	.
=44	=44	=44	=44	=44	=44	=44
4r	4Rf\	8AA	4A	4c	4e	8cL]
.	.	4AA	.	.	.	8A
4Rcc/	8r	.	4A	4c	4e	8A
.	12r	8AA	.	.	.	16eJk
.	.	.	.	.	.	64r
.	.	.	.	.	.	32.d
.	24Rf\	.	.	.	.	.
4r	8Rf\L	4GG	12r	12r	12r	8.e
.	.	.	6G	6c	6g	.
.	8Rf\J	.	.	.	.	.
.	.	.	.	.	.	64r
.	.	.	.	.	.	32.eKKL
8Rcc/L	4r	4GG	4G	4c	4e	12dJ
.	.	.	.	.	.	6c
12Ree/	.	.	.	.	.	.
24Rdd/Jk	.	.	.	.	.	.
=45	=45	=45	=45	=45	=45	=45
4Rbb/	4r	4FF	4A	4c	4f	4r
4Rcc/	8r	8.FF	4A	4c	4f	16r
.	.	.	.	.	.	64r
.	.	.	.	.	.	32.AKLL
.	12r	.	.	.	.	16cJJ
.	.	64r	.	.	.	64r
.	.	32.FF	.	.	.	32.d
.	24Rf\	.	.	.	.	.
4r	8Rf\L	8EE	4G	4c	4e	8eL
.	8Rf\J	4EE	.	.	.	16GL
.	.	.	.	.	.	[16gJJ
4Rcc/	8r	.	4G	4c	4e	8gL]
.	8Rf\	8EE	.	.	.	8aJ
=46	=46	=46	=46	=46	=46	=46
4r	8Rf\	8D	4A	4d	4f#X	8.c
.	12r	4D	.	.	.	.
.	.	.	.	.	.	64r
.	.	.	.	.	.	32.AKKL
.	24Rf\	.	.	.	.	.
4Rcc/	8r	.	4A	4d	4f#	8A
.	12r	8D	.	.	.	16eJk
.	.	.	.	.	.	64r
.	.	.	.	.	.	32.d
.	24Rf\	.	.	.	.	.
4r	8Rf\L	8GGL	12r	12r	12r	4d
.	.	.	6A	6c	6fn	.
.	8Rf\J	16AJk	.	.	.	.
.	.	64r	.	.	.	.
.	.	32.B	.	.	.	.
8Rcc/L	4r	16G	4B	8dL	8gL	8r
.	.	64r	.	.	.	.
.	.	32.EKKL	.	.	.	.
12Rdd/	.	8DJ	.	16cJk	8fJ	16e
.	.	.	.	64r	.	64r
.	.	.	.	32.d	.	32.f
24Rgg/Jk	.	.	.	.	.	.
*	*	*	*clefG2	*	*	*
=47	=47	=47	=47	=47	=47	=47
4Ree/	4r	4C	4c	8eL	4g	8gL
.	.	.	.	16eL	.	16gL
.	.	.	.	[16eJ	.	[16gJ
4Rgg/	8r	8.C	4c	8eJ]	4g	8gJ]
.	12r	.	.	16r	.	16r
.	.	64r	.	64r	.	64r
.	.	32.C	.	32.e	.	32.g
.	24Rf\	.	.	.	.	.
4r	8Rf\L	8EEL	4B	8eL	4g#X	8g#XL
.	8Rf\J	8GG#X	.	16dL	.	16eL
.	.	.	.	[16dJJ	.	[16g#JJ
4Rcc/	8r	8BB	8dL	16d]	8g#L	16g#]
.	.	.	.	64r	.	64r
.	.	.	.	32.eKKL	.	32.aKKL
.	12r	8EJ	8BJ	8g#XJ	8bJ	8bJ
.	24Rf\	.	.	.	.	.
=48	=48	=48	=48	=48	=48	=48
4r	4Rf\	12A	4c	8aL	4a	8ccL
.	.	6A	.	.	.	.
.	.	.	.	8eJ	.	8aJ
*	*	*	*	*clefF4	*	*
4Rcc/	8r	8CL	4c	12cL	4g	12eL
.	.	.	.	12B	.	12d
.	12r	8AAJ	.	.	.	.
.	.	.	.	12cJ	.	12eJ
.	24Rf\	.	.	.	.	.
4r	8Rf\L	4GG	8.c	12B	8.g	12d
.	.	.	.	6A	.	6c
.	8Rf\J	.	.	.	.	.
.	.	.	64r	.	64r	.
*	*	*	*clefF4	*	*	*
.	.	.	32.B-X	.	32.f	.
4Rcc/	8r	4C	4c	4r	4e	8r
.	8Rf\	.	.	.	.	16c
.	.	.	.	.	.	64r
.	.	.	.	.	.	32.g
*v	*v	*	*	*	*	*
*	*	*	*clefG2	*	*
=49	=49	=49	=49	=49	=49
8Ree/	4F	2A	2c	2f	8.gL
12r	.	.	.	.	.
.	.	.	.	.	[16cK
24Rgg/	.	.	.	.	.
4r	8.F	.	.	.	8cJ]
.	.	.	.	.	16r
.	64r	.	.	.	64r
.	32.F	.	.	.	32.c
12Rdd/L	4E	2G	2c	2g	16g
.	.	.	.	.	64r
.	.	.	.	.	32.gKLL
12Ree/J	.	.	.	.	.
.	.	.	.	.	16a
24r	.	.	.	.	.
.	.	.	.	.	[16cJ
24Rgg/	.	.	.	.	.
8r	4C	.	.	.	8cJ]
12Ree/L	.	.	.	.	16r
.	.	.	.	.	64r
.	.	.	.	.	32.c
24Ree/Jk	.	.	.	.	.
=50	=50	=50	=50	=50	=50
*^	*	*	*	*	*
4Rbb/	2r	8.D	4A	4d	4f	8.a
.	.	64r	.	.	.	64r
.	.	32.GGKKL	.	.	.	32.gKKL
12Rff/L	.	12FF#X	12AL	12dL	12f#XL	12a
12Ree/	.	12GG	12B	12e	12g	12b
12Rdd/J	.	12AAJ	12cJ	12fJ	12aJ	12ccJ
12Rcc/L	4r	4GG	2B	4e	2g	16b
.	.	.	.	.	.	64r
.	.	.	.	.	.	32.cc
12Ree/J	.	.	.	.	.	.
.	.	.	.	.	.	4.b'
24r	.	.	.	.	.	.
24Rgg/	.	.	.	.	.	.
4Rcc/	8r	4G	.	4d	.	.
.	8Rf\	.	.	.	.	.
=51	=51	=51	=51	=51	=51	=51
12Ree/L	4r	4BB	4r	4r	4r	16d
.	.	.	.	.	.	64r
.	.	.	.	.	.	32.cKLL
12Rdd/J	.	.	.	.	.	.
.	.	.	.	.	.	16dJJ
24r	.	.	.	.	.	.
.	.	.	.	.	.	64r
.	.	.	.	.	.	32.cKKL
24Rdd/	.	.	.	.	.	.
*	*	*	*clefG2	*	*	*
12Rcc/L	8r	4BB	4B	4d	4d	12d
24Rdd/Jk	.	.	.	.	.	12.g
8r	8Rf\	.	.	.	.	.
.	.	.	.	.	.	[24fJk
8Rcc/L	4r	4C	2c	2e	2g	16f]
.	.	.	.	.	.	64r
.	.	.	.	.	.	32.eKLL
8Rcc/J	.	.	.	.	.	16d
.	.	.	.	.	.	[16eJ
4Rcc/	8r	4C	.	.	.	8eJ]
.	12r	.	.	.	.	16r
.	.	.	.	.	.	64r
.	.	.	.	.	.	32.c
.	24Rf\	.	.	.	.	.
=52	=52	=52	=52	=52	=52	=52
*	*	*	*	*	*	*^
4r	8Rf\L	4GG	8r	8r	8r	2r	16d
.	.	.	.	.	.	.	64r
.	.	.	.	.	.	.	32.cKLL
.	8Rf\J	.	8G	8B	8d	.	16dJJ
.	.	.	.	.	.	.	64r
.	.	.	.	.	.	.	32.cKKL
4Rcc/	8r	4GG#X	4B	4d	4g#X	.	12d
.	.	.	.	.	.	.	12.g
.	12r	.	.	.	.	.	.
.	24Rf\	.	.	.	.	.	[24fJk
4r	8Rf\L	4AA	4c	2e	4a	4r	16f]
.	.	.	.	.	.	.	64r
.	.	.	.	.	.	.	32.eKLL
.	8Rf\J	.	.	.	.	.	16dJJ
.	.	.	.	.	.	.	64r
.	.	.	.	.	.	.	32.e
4Rcc/	8r	4GGn	4A	.	4gn	8r	12r
.	.	.	.	.	.	.	6c
.	12Rf\L	.	.	.	.	16r	.
.	.	.	.	.	.	64r	.
.	.	.	.	.	.	32.g	.
.	24Rf\Jk	.	.	.	.	.	.
=53	=53	=53	=53	=53	=53	=53	=53
4r	4Rf\	8FF	2c	2f	2a	4r	4a
.	.	4FF	.	.	.	.	.
4Rcc/	8r	.	.	.	.	8r	16r
.	.	.	.	.	.	.	64r
.	.	.	.	.	.	.	32.gKKL
.	8Rf\	8FF	.	.	.	16r	8f'J
.	.	.	.	.	.	[16g	.
12r	8Rf\	8EEL	2c	2e	2g	16g]	12r
.	.	.	.	.	.	16r	.
6Rcc/	.	.	.	.	.	.	6b
.	12r	8GG	.	.	.	16r	.
.	.	.	.	.	.	64r	.
.	.	.	.	.	.	32.b	.
.	24Rf\	.	.	.	.	.	.
4Rcc/	8r	8C	.	.	.	4r	16cc
.	.	.	.	.	.	.	64r
.	.	.	.	.	.	.	32.gKLL
.	12r	8EJ	.	.	.	.	16e
.	.	.	.	.	.	.	[16eJJ
.	24Rf\	.	.	.	.	.	.
=54	=54	=54	=54	=54	=54	=54	=54
4r	8Rf\L	8D	2d	2f	2a	1r	16e]
.	.	.	.	.	.	.	64r
.	.	.	.	.	.	.	32.d
.	8Rf\J	4D	.	.	.	.	4.d
4Rcc/	8r	.	.	.	.	.	.
.	12r	8D	.	.	.	.	.
.	24Rf\	.	.	.	.	.	.
4r	8Rf\	8CL	4r	4r	4r	.	4r
.	12r	8CJ	.	.	.	.	.
.	24Rf\	.	.	.	.	.	.
4Rcc/	8r	16C	8cL	8dL	8f#XL	.	8aL
.	.	64r	.	.	.	.	.
.	.	32.BBKKL	.	.	.	.	.
.	12r	8CJ	8cJ	8dJ	8f#J	.	8aJ
.	24Rf\	.	.	.	.	.	.
*	*	*	*	*	*	*v	*v
=55	=55	=55	=55	=55	=55	=55
8Rcc/L	4r	8DL	[4c	[4d	[4a	[4a
8Rcc/J	.	8GG	.	.	.	.
12Ree/L	8r	8AA	16c]	16d]	16a]	16a]
.	.	.	64r	64r	64r	64r
.	.	.	32.BKLL	32.dKLL	32.gKLL	32.gKLL
24Rdd/Jk	.	.	.	.	.	.
*	*	*	*clefF4	*	*	*
8r	8Rf\	8BBJ	16BJJ	16dJJ	16aJJ	16aJJ
.	.	.	64r	64r	64r	64r
.	.	.	32.B	32.d	32.a	32.a
4r	8Rf\L	8EEL	8.B	8.e	8.a	8.a
.	8Rf\J	16AAJk	.	.	.	.
.	.	64r	64r	64r	64r	64r
.	.	32.BB	32.e	32.g#X	32.b	32.b
12Rcc/	8r	16E	4e	4g#	4b	4b
.	.	64r	.	.	.	.
.	.	32.BBKKL	.	.	.	.
6Rcc/	.	.	.	.	.	.
.	12r	8EEJ	.	.	.	.
.	24Rf\	.	.	.	.	.
*	*	*	*clefG2	*	*	*
*v	*v	*	*	*	*	*
=56||	=56||	=56||	=56||	=56||	=56||
*	*k[f#c#g#]	*k[f#c#g#]	*k[f#c#g#]	*k[f#c#g#]	*k[f#c#g#]
*^	*	*^	*^	*^	*^
4Raa/	4r	8AA	8c#L	8r	6e'	8r	6a'	8r	8bL	8r
.	.	4AA	8c#'J	16r	.	16eLL	.	16aLL	8a'J	16r
.	.	.	.	.	6r	.	6r	.	.	.
.	.	.	.	[16c#	.	[16eJJ	.	[16aJJ	.	[16e
4Rcc/	8r	.	12r	16c#]	.	16e]	.	16a]	12r	16e]
.	.	.	.	16r	.	16r	.	16r	.	16r
.	.	.	6B	.	6d	.	6f#	.	6a	.
.	12r	8AA	.	16r	.	8r	.	8r	.	16r
.	.	.	.	64r	.	.	.	.	.	64r
*	*	*	*clefF4	*	*	*	*	*	*	*
.	.	.	.	32.A	.	.	.	.	.	32.a
.	24Rf\	.	.	.	.	.	.	.	.	.
4r	8Rf\L	8C#	12BL	2r	8r	2r	8r	2r	12bL	2r
.	.	.	12.B	.	.	.	.	.	12.cc#	.
.	8Rf\J	4C#	.	.	8eL	.	8g#L	.	.	.
.	.	.	[24dJk	.	.	.	.	.	[24ddJk	.
4Rcc/	8r	.	16d]	.	8f#	.	8a	.	16dd]	.
.	.	.	64r	.	.	.	.	.	64r	.
*	*	*	*clefG2	*	*	*	*	*	*	*
.	.	.	32.c#KLL	.	.	.	.	.	32.g#KLL	.
.	8Rf\	8C#	16BJJ	.	8g#J	.	8bJ	.	16cc#JJ	.
.	.	.	64r	.	.	.	.	.	64r	.
.	.	.	32.c#	.	.	.	.	.	32.b	.
*	*	*	*v	*v	*	*	*v	*v	*	*
*	*	*	*	*v	*v	*	*	*
=57	=57	=57	=57	=57	=57	=57	=57
4Rbb/	4r	8FF#	12e	4f#	4a	4r	12a
.	.	.	6e	.	.	.	6a
.	.	4FF#	.	.	.	.	.
4Rcc/	8r	.	4r	4c#	4g#	8r	8r
.	12r	8FF#	.	.	.	16r	8a'
.	.	.	.	.	.	[16g#	.
.	24Rf\	.	.	.	.	.	.
*	*	*	*clefF4	*	*	*	*
4r	8Rf\L	4EE	2A	2e	2a	16g#]	12r
.	.	.	.	.	.	16r	.
.	.	.	.	.	.	.	6a
.	8Rf\J	.	.	.	.	16r	.
.	.	.	.	.	.	64r	.
.	.	.	.	.	.	32.g#	.
4Rcc/	8r	16EE	.	.	.	4r	12e
.	.	64r	.	.	.	.	.
.	.	32.BBKKL	.	.	.	.	.
.	.	.	.	.	.	.	6e
.	8Rf\	8EJ	.	.	.	.	.
*	*	*	*	*	*	*v	*v
=58	=58	=58	=58	=58	=58	=58
4r	4Rf\	8D	2A	2d	2f#	16d
.	.	.	.	.	.	64r
.	.	.	.	.	.	32.eKKL
.	.	4D	.	.	.	8f#
4Rcc/	8r	.	.	.	.	8f#
.	12r	8D	.	.	.	16dL
.	.	.	.	.	.	[16eJJ
.	24Rf\	.	.	.	.	.
4r	8Rf\L	8C#	2A	2c#	2e	16e]
.	.	.	.	.	.	64r
.	.	.	.	.	.	32.dKKL
.	8Rf\J	4C#	.	.	.	8bJ
4Rcc/	8r	.	.	.	.	4a'
.	8Rf\	8C#	.	.	.	.
=59	=59	=59	=59	=59	=59	=59
12Rff/L	2r	8BBL	8r	8r	8r	16f#
.	.	.	.	.	.	64r
.	.	.	.	.	.	32.g#KKL
24Ree/K	.	.	.	.	.	.
8Rdd/J	.	8BB	8B	8d#X	8d#X	8aJ
8Rcc/L	.	8BB	4B	4e	4e	16a
.	.	.	.	.	.	64r
.	.	.	.	.	.	32.f#KLL
12Ree/	.	8BBJ	.	.	.	16f#
.	.	.	.	.	.	[16aJJ
24Rdd/Jk	.	.	.	.	.	.
4Rbb/	4r	8EL	2B	4e	2g#	16a]
.	.	.	.	.	.	64r
.	.	.	.	.	.	32.bKKL
.	.	8EE	.	.	.	8cc#J
4Rcc/	8r	8FF#	.	4dn	.	4b'
.	12Rf\L	8GG#J	.	.	.	.
.	24Rf\Jk	.	.	.	.	.
=60	=60	=60	=60	=60	=60	=60
*	*	*	*	*	*	*^
4Raa/	4r	8AA	2A	2c#	2a	8bL	8r
.	.	4AA	.	.	.	8a'J	16r
.	.	.	.	.	.	.	[16e
4Rcc/	8r	.	.	.	.	12r	16e]
.	.	.	.	.	.	.	16r
.	.	.	.	.	.	6a	.
.	12r	16AA	.	.	.	.	16r
.	.	64r	.	.	.	.	64r
.	.	32.BB	.	.	.	.	32.a
.	24Rf\	.	.	.	.	.	.
12r	4Rf\	8C#	4G#	4c#	4e#X	12bL	2r
24Rff/KL	.	.	.	.	.	12.cc#	.
12Ree/	.	4C#	.	.	.	.	.
24Rdd/Jk	.	.	.	.	.	[24ddJk	.
4Rcc/	8r	.	4B	4e	4g#	16dd]	.
.	.	.	.	.	.	64r	.
.	.	.	.	.	.	32.cc#KLL	.
.	12Rf\L	8C#	.	.	.	16g#JJ	.
.	.	.	.	.	.	64r	.
.	.	.	.	.	.	32.b	.
.	24Rf\Jk	.	.	.	.	.	.
=61	=61	=61	=61	=61	=61	=61	=61
4r	4Rf\	8F#	4c#	2f#	1a	4r	8aL
.	.	4FF#	.	.	.	.	8aJ
4Rcc/	8r	.	4B	.	.	8r	8r
.	12r	8FF#	.	.	.	16r	8a'
.	.	.	.	.	.	[16g#	.
.	24Rf\	.	.	.	.	.	.
4r	8Rf\L	8AA	2A	2e	.	16g#]	12r
.	.	.	.	.	.	16r	.
.	.	.	.	.	.	.	6a
.	8Rf\J	4AA	.	.	.	16r	.
.	.	.	.	.	.	64r	.
.	.	.	.	.	.	32.g#	.
4Rcc/	8r	.	.	.	.	4r	12e
.	.	.	.	.	.	.	6e
.	12r	8EE	.	.	.	.	.
.	24Rf\	.	.	.	.	.	.
*	*	*	*	*	*	*v	*v
=62	=62	=62	=62	=62	=62	=62
4r	8Rf\L	8D	4A	2d	2f#	16d
.	.	.	.	.	.	64r
.	.	.	.	.	.	32.eKKL
.	8Rf\J	4D	.	.	.	8f#
4Rcc/	8r	.	4B	.	.	8f#
.	12Rf\L	16D	.	.	.	16dL
.	.	64r	.	.	.	[16eJJ
.	.	32.BB	.	.	.	.
.	24Rf\Jk	.	.	.	.	.
*	*	*	*clefG2	*	*	*
4r	8Rf\L	8C#	2c#	2e	2a	16e]
.	.	.	.	.	.	64r
.	.	.	.	.	.	32.dKKL
.	8Rf\J	4C#	.	.	.	8bJ
4Rcc/	8r	.	.	.	.	4a'
.	8Rf\	8C#	.	.	.	.
=63	=63	=63	=63	=63	=63	=63
4r	8Rf\L	8BB	2.B	2d#X	2f#	16f#
.	.	.	.	.	.	64r
.	.	.	.	.	.	32.g#KKL
.	8Rf\J	4BB	.	.	.	8a
4Rcc/	8r	.	.	.	.	8a
.	12r	8BB	.	.	.	16f#L
.	.	.	.	.	.	[16aJJ
.	24Rf\	.	.	.	.	.
8r	4Rf\	8E	.	2e	4a	16a]
.	.	.	.	.	.	64r
.	.	.	.	.	.	32.bKKL
8Rcc/	.	4E	.	.	.	8cc#
12r	8Rf\	.	4e	.	4b	8dd
6Rcc/	.	.	.	.	.	.
.	12r	16C#	.	.	.	16cc#Jk
.	.	64r	.	.	.	64r
.	.	32.E	.	.	.	32.a
.	24Rf\	.	.	.	.	.
=64	=64	=64	=64	=64	=64	=64
4Rcc/	8r	8D	2d	2f#	2a	4a
.	8Rf\	4D	.	.	.	.
12Rff/L	4r	.	.	.	.	4r
24Ree/K	.	.	.	.	.	.
8Rdd/J	.	8D	.	.	.	.
4Rcc/	4r	8E	2c#	2e	2g#	4b
.	.	4E	.	.	.	.
12Rff/	8r	.	.	.	.	16a
.	.	.	.	.	.	64r
.	.	.	.	.	.	32.bKKL
6Ree/	.	.	.	.	.	.
.	12r	8E	.	.	.	8cc#J
.	24Rf\	.	.	.	.	.
=65	=65	=65	=65	=65	=65	=65
8.Raa/L	2r	8F#L	8.c#'L	8.f#'L	8.a'L	8cc#L
.	.	8FF#	.	.	.	16ddL
*	*	*	*clefF4	*	*	*
16Raa/Jk	.	.	[16c#Jk	[16aJk	[16cc#Jk	[16cc#JJ
8r	.	8GG#	16c#]	16a]	16cc#]	16cc#]
.	.	.	64r	64r	64r	64r
.	.	.	32.BKKL	32.g#KKL	32.bKKL	32.bKKL
8Raa/	.	8AAJ	8AJ	8f#J	8aJ	8aJ
4r	4Rf\	8BBL	4F#	4d	4f#	4f#
.	.	8BB	.	.	.	.
4Rcc/	8r	8BB	4r	4r	4r	8r
.	12r	8C#J	.	.	.	16bLL
.	.	.	.	.	.	[16aJJ
.	24Rf\	.	.	.	.	.
*	*	*	*clefG2	*	*	*
=66	=66	=66	=66	=66	=66	=66
4r	8Rf\L	8DL	2A	2d	4r	4a]
.	8Rf\J	8D	.	.	.	.
4Rcc/	8r	8D	.	.	8r	8r
.	8Rf\	8DJ	.	.	16r	16r
.	.	.	.	.	64r	64r
.	.	.	.	.	32.g#	32.e
4r	4Rf\	8EL	2B	2e	8.dd	8.b
.	.	8E	.	.	.	.
.	.	.	.	.	64r	64r
.	.	.	.	.	32.cc#KKL	32.aKKL
4Rcc/	8r	8E	.	.	8.cc#	8.a
.	12r	8EJ	.	.	.	.
.	.	.	.	.	[16cc#Jk	[16aJk
.	24Rf\	.	.	.	.	.
*v	*v	*	*	*	*	*
=67	=67	=67	=67	=67	=67
4Raa/	8.AL	8.dL	8.aL	2cc#]	2a]
.	[16G#Jk	[16c#Jk	[16g#Jk	.	.
12Rcc/L	8G#L]	8c#L]	8g#L]	.	.
12Ree/J	.	.	.	.	.
*	*	*clefF4	*	*	*
.	8F#J	8BJ	8f#J	.	.
24r	.	.	.	.	.
24Rdd/	.	.	.	.	.
4Raa/	[2BB	[2B	4e	[2f#	[2g#
4r	.	.	[4d#X	.	.
=68	=68	=68	=68	=68	=68
1r	1BB]	1B]	1d#]	1f#]	1g#]
=69	=69	=69	=69	=69	=69
*	*	*^	*	*	*
1r	1r	8BL	8r	2d	2r	1r
.	.	8A'J	16r	.	.	.
.	.	.	[16E	.	.	.
.	.	12r	16E]	.	.	.
.	.	.	16r	.	.	.
.	.	6A	.	.	.	.
.	.	.	16r	.	.	.
.	.	.	64r	.	.	.
.	.	.	32.A	.	.	.
.	.	14BKL	2r	2e	4r	.
*	*	*clefG2	*	*	*	*
.	.	7c#	.	.	.	.
.	.	14.dL	.	.	.	.
.	.	.	.	.	4b	.
.	.	14.c#	.	.	.	.
.	.	14G#JJ	.	.	.	.
*	*	*v	*v	*	*	*
=70	=70	=70	=70	=70	=70
*	*	*	*	*	*^
1r	2r	12B	4f#	2cc#	4r	4r
.	.	6A	.	.	.	.
.	.	4r	2.a	.	8r	8r
.	.	.	.	.	16r	8a'
.	.	.	.	.	[16g#	.
.	4r	4r	.	2b	16g#]	12r
.	.	.	.	.	16r	.
.	.	.	.	.	.	6a
.	.	.	.	.	16r	.
.	.	.	.	.	64r	.
.	.	.	.	.	32.g#	.
.	4F#	4e	.	.	4r	12e
.	.	.	.	.	.	6e
*	*	*	*	*	*v	*v
=71	=71	=71	=71	=71	=71
*^	*	*	*	*	*
4r	8Rf\L	2D	2d	2f#	2a	16d
.	.	.	.	.	.	64r
.	.	.	.	.	.	32.eKKL
.	8Rf\J	.	.	.	.	8f#J
4Rgg/	8r	.	.	.	.	16f#
.	.	.	.	.	.	64r
.	.	.	.	.	.	32.dKLL
.	12r	.	.	.	.	16d
.	.	.	.	.	.	[16eJJ
.	24Rf\	.	.	.	.	.
4r	8Rf\L	2C#	2e	2a	2cc#	16e]
.	.	.	.	.	.	64r
.	.	.	.	.	.	32.f#KKL
.	8Rf\J	.	.	.	.	8bJ
4Rgg/	4r	.	.	.	.	4a'
=72	=72	=72	=72	=72	=72	=72
*	*	*^	*^	*^	*^	*^
2r	8Rf\L	4r	8r	8r	4r	4r	8r	4r	8r	2r	16f#
.	.	.	.	.	.	.	.	.	.	.	64r
.	.	.	.	.	.	.	.	.	.	.	32.g#KKL
*	*	*	*	*clefF4	*	*	*	*	*	*	*
.	8Rf\	.	4.FF#'	4.B'	.	.	4.d#X'	.	4.f#'	.	8aJ
.	8Rf\	12r	.	.	12r	12r	.	12r	.	.	16a
.	.	.	.	.	.	.	.	.	.	.	64r
.	.	.	.	.	.	.	.	.	.	.	32.f#KLL
.	.	6AA	.	.	6A	6c#	.	6e	.	.	.
.	8Rf\J	.	.	.	.	.	.	.	.	.	16f#
.	.	.	.	.	.	.	.	.	.	.	[16aJJ
12Rff/L	2r	4C#	2r	2r	4A	8c#L	2r	4a	2r	8r	16a]
.	.	.	.	.	.	.	.	.	.	.	64r
.	.	.	.	.	.	.	.	.	.	.	32.bKKL
12Ree/J	.	.	.	.	.	.	.	.	.	.	.
.	.	.	.	.	.	8e	.	.	.	16r	8cc#'J
24r	.	.	.	.	.	.	.	.	.	.	.
.	.	.	.	.	.	.	.	.	.	[16b	.
24Rdd/	.	.	.	.	.	.	.	.	.	.	.
8Ree/L	.	4E	.	.	4B	8f#	.	8bL	.	16b]	12r
.	.	.	.	.	.	.	.	.	.	16r	.
.	.	.	.	.	.	.	.	.	.	.	6b
8Rdd/J	.	.	.	.	.	8g#J	.	8cc#J	.	8r	.
*v	*v	*	*	*v	*v	*v	*v	*v	*v	*	*
*	*v	*v	*	*	*	*	*
=73	=73	=73	=73	=73	=73	=73
8r	8r	8r	8r	8r	8bL	8r
8Raa/	8AA	8A	8e	8cc#	8a'J	16r
.	.	.	.	.	.	[16e
*	*	*clefG2	*	*	*	*
12Rdd/L	12AAL	12f#L	12aL	12ddL	12r	16e]
.	.	.	.	.	.	16r
12Ree/	12C#	12e	12g#	12cc#	6a	.
.	.	.	.	.	.	16r
12Rff/J	12DJ	12dJ	12f#J	12bJ	.	.
.	.	.	.	.	.	64r
.	.	.	.	.	.	32.a
4Raa/	4E#X	4c#	4e#X	4g#	12bL	2r
.	.	.	.	.	12.cc#	.
.	.	.	.	.	[24ddJk	.
4Raa/	4C#	4e#X	4g#	4b	16dd]	.
.	.	.	.	.	64r	.
.	.	.	.	.	32.cc#KLL	.
.	.	.	.	.	16g#JJ	.
.	.	.	.	.	64r	.
.	.	.	.	.	32.b	.
=74	=74	=74	=74	=74	=74	=74
*^	*	*^	*^	*	*	*
4Raa/	4r	4F#	4.f#	4r	2a	2r	2cc#	4r	8aL
.	.	.	.	.	.	.	.	.	8aJ
4Rcc/	8r	12F#L	.	8r	.	.	.	8r	8r
.	.	12E	.	.	.	.	.	.	.
.	12r	.	8d'	16r	.	.	.	16r	8a'
.	.	12C#J	.	.	.	.	.	.	.
.	.	.	.	[16c#	.	.	.	[16g#	.
.	24Rf\	.	.	.	.	.	.	.	.
4r	8Rf\L	4EE	12r	16c#]	12r	8r	2a	16g#]	12r
.	.	.	.	16r	.	.	.	16r	.
.	.	.	6d	.	6f#	.	.	.	6a
.	8Rf\J	.	.	16r	.	16r	.	16r	.
.	.	.	.	64r	.	64r	.	64r	.
.	.	.	.	32.c#	.	32.e	.	32.g#	.
*	*	*	*clefF4	*	*	*	*	*	*
4Rcc/	8r	4AA	12A	4r	12c#	4r	.	4r	12e
.	.	.	6A	.	6c#	.	.	.	6e
.	12r	.	.	.	.	.	.	.	.
.	24Rf\	.	.	.	.	.	.	.	.
*	*	*	*v	*v	*	*	*	*v	*v
*	*	*	*	*v	*v	*	*
=75	=75	=75	=75	=75	=75	=75
4r	8Rf\L	4D	16B	16d	16d	16d
.	.	.	64r	64r	64r	64r
.	.	.	32.c#KKL	32.eKKL	32.eKKL	32.eKKL
.	8Rf\J	.	8dJ	8f#J	8f#J	8f#J
4Rcc/	8r	4D	16d	16f#	16f#	16f#
.	.	.	64r	64r	64r	64r
.	.	.	32.BKLL	32.dKLL	32.dKLL	32.dKLL
.	12r	.	16B	16d	16f#	16d
*	*	*	*clefG2	*	*	*
.	.	.	[16c#JJ	[16eJJ	[16g#JJ	[16eJJ
.	24Rf\	.	.	.	.	.
4r	8Rf\L	4C#	16c#]	16e]	16g#]	16e]
.	.	.	64r	64r	64r	64r
.	.	.	32.eKKL	32.f#KKL	32.aKKL	32.f#KKL
.	8Rf\J	.	8g#J	8b	8ddJ	8b
8Rcc/L	4r	8C#L	4f#'	8.a'J	4cc#'	8.a'J
12Ree/	.	8AAJ	.	.	.	.
.	.	.	.	64r	.	64r
.	.	.	.	32.f#	.	32.a
24Rdd/Jk	.	.	.	.	.	.
=76	=76	=76	=76	=76	=76	=76
4Raa/	2r	8BBL	4B	12bL	4f#	12ddL
.	.	.	.	12a	.	12cc#
.	.	8BB	.	.	.	.
.	.	.	.	12g#J	.	12bJ
12Rff/L	.	8C#	4c#	8f#L	4g#	8aL
24Ree/K	.	.	.	.	.	.
8Rdd/J	.	8C#J	.	8f#J	.	8aJ
8Rdd/L	4r	8DL	4d	16f#	4a	16a
.	.	.	.	64r	.	64r
.	.	.	.	32.g#KKL	.	32.bKKL
8Rdd/J	.	8D	.	8aJ	.	8cc#J
4r	64Rf\LLLL	8E	4e	4g#'	4b	4b'
.	64Rf\	.	.	.	.	.
.	64Rf\	.	.	.	.	.
.	64Rf\	.	.	.	.	.
.	64Rf\	.	.	.	.	.
.	64Rf\	.	.	.	.	.
.	64Rf\	.	.	.	.	.
.	64Rf\	.	.	.	.	.
.	64Rf\	8EJ	.	.	.	.
.	64Rf\	.	.	.	.	.
.	64Rf\	.	.	.	.	.
.	64Rf\	.	.	.	.	.
.	64Rf\	.	.	.	.	.
.	64Rf\	.	.	.	.	.
.	64Rf\	.	.	.	.	.
.	64Rf\JJJJ	.	.	.	.	.
*v	*v	*	*	*	*	*
=77	=77	=77	=77	=77	=77
*	*	*	*	*	*^
8r	8r	8r	8r	8r	8bL	8r
8Raa/	8AA	8e	8a	8cc#	8a'J	16r
.	.	.	.	.	.	[16e
12Rff/L	12AAL	12e	12a	12cc#	12r	16e]
.	.	.	.	.	.	16r
12Ree/	12BB	6e	6a	6cc#	6a	.
.	.	.	.	.	.	16r
12Rdd/J	12C#J	.	.	.	.	.
.	.	.	.	.	.	64r
.	.	.	.	.	.	32.a
4Raa/	4C#	4e#X	4g#	4cc#	12bL	2r
.	.	.	.	.	12.cc#	.
.	.	.	.	.	[24ddJk	.
4Raa/	4E#X	4g#	4b	4ee	16dd]	.
.	.	.	.	.	64r	.
.	.	.	.	.	32.cc#KLL	.
.	.	.	.	.	16g#JJ	.
.	.	.	.	.	64r	.
.	.	.	.	.	32.b	.
*	*	*	*	*	*v	*v
=78	=78	=78	=78	=78	=78
*^	*	*	*	*	*
4Raa/	4r	8F#	2a	2cc#	1aa	8a
.	.	4F#	.	.	.	[4.a
4Rcc/	8r	.	.	.	.	.
.	12r	8F#	.	.	.	.
.	24Rf\	.	.	.	.	.
4r	8Rf\L	8E	2e	2a	.	8.a]
.	8Rf\J	4E	.	.	.	.
.	.	.	.	.	.	16r
4Rcc/	4r	.	.	.	.	8g#L
.	.	8E	.	.	.	[8aJ
=79	=79	=79	=79	=79	=79	=79
4r	4Rf\	8D	2d	2f#	4a	4a]
.	.	4D	.	.	.	.
4Rcc/	8r	.	.	.	8bL	4r
.	12r	8D	.	.	8aJ	.
.	24Rf\	.	.	.	.	.
4r	8Rf\L	8C#	2c#	4.e	8b	2r
.	8Rf\J	4C#	.	.	4.a	.
4Rcc/	8r	.	.	.	.	.
.	8Rf\	8C#	.	16r	.	.
.	.	.	.	64r	.	.
.	.	.	.	32.d	.	.
*	*	*	*clefF4	*	*	*
=80	=80	=80	=80	=80	=80	=80
4r	4Rf\	4BB	2B	16f#	1f#	2r
.	.	.	.	64r	.	.
.	.	.	.	32.aKLL	.	.
.	.	.	.	16aJJ	.	.
.	.	.	.	64r	.	.
.	.	.	.	32.f#KKL	.	.
4Rcc/	8r	4BB	.	8a	.	.
.	12r	.	.	8bJ	.	.
.	24Rf\	.	.	.	.	.
4r	8Rf\L	4E	8BL	2r	.	4r
.	8Rf\J	.	8d	.	.	.
4Rcc/	8r	4E	8e	.	.	8r
.	12r	.	8BJ	.	.	16b
.	.	.	.	.	.	64r
.	.	.	.	.	.	32.a
.	24Rf\	.	.	.	.	.
=81	=81	=81	=81	=81	=81	=81
4r	4Rf\	4D	2A	2d	2f#	4a
4Rcc/	8r	4D	.	.	.	8r
.	12r	.	.	.	.	16r
.	.	.	.	.	.	64r
.	.	.	.	.	.	32.e
.	24Rf\	.	.	.	.	.
4r	8Rf\L	4E	2B	2e	2g#	8.a
.	8Rf\J	.	.	.	.	.
.	.	.	.	.	.	64r
.	.	.	.	.	.	32.aKKL
12Rff/L	4r	4E	.	.	.	12a
12Ree/	.	.	.	.	.	12b
12Rdd/J	.	.	.	.	.	12cc#J
=82	=82	=82	=82	=82	=82	=82
*	*	*^	*^	*^	*^	*
8r	4Rf\	8r	6FF#'	8r	4r	8r	4r	8r	4r	8cc#L
8Raa/	.	4.F#'	.	4.c#'	.	4.f#'	.	4.a'	.	16ddL
.	.	.	6r	.	.	.	.	.	.	.
.	.	.	.	.	.	.	.	.	.	[16cc#JJ
12r	8Rf\	.	.	.	12r	.	12r	.	12r	16cc#]
.	.	.	.	.	.	.	.	.	.	64r
.	.	.	.	.	.	.	.	.	.	32.bKKL
6Raa/	.	.	6E	.	6B	.	6e	.	6g#	.
.	12r	.	.	.	.	.	.	.	.	8aJ
.	24Rf\	.	.	.	.	.	.	.	.	.
4Raa/	8r	2r	2BB	2r	2B	2r	2d#X	2r	2f#	4f#
.	8Rf\L	.	.	.	.	.	.	.	.	.
4r	8Rf\	.	.	.	.	.	.	.	.	8r
.	8Rf\J	.	.	.	.	.	.	.	.	16bLL
.	.	.	.	.	.	.	.	.	.	[16aJJ
*v	*v	*	*	*v	*v	*v	*v	*v	*v	*
*	*v	*v	*	*	*	*
=83	=83	=83	=83	=83	=83
12Ree/L	4D	4d	4f#	4a	4a]
24Rgg/Jk	.	.	.	.	.
8r	.	.	.	.	.
4r	8r	8r	8r	8r	8r
.	16r	16r	16r	16r	16r
.	64r	64r	64r	64r	64r
.	32.EE	32.E	32.e	32.e	32.e
2r	8.BB	8.B	8.b	8.b	8.b
.	64r	64r	64r	64r	64r
.	32.AAKKL	32.AKKL	32.aKKL	32.aKKL	32.aKKL
.	8.AA	8.A	8.a	8.a	8.a
.	[16AAJk	[16c#Jk	[16f#Jk	[16bJk	[16aJk
=84	=84	=84	=84	=84	=84
1r	1AA]	1c#]	1f#]	2b]	1a]
.	.	.	.	2a	.
==	==	==	==	==	==
*-	*-	*-	*-	*-	*-
